**kern	**kern	**dynam
*part1	*part1	*part1
*staff2	*staff1	*
*I"Piano	*	*
*clefF4	*clefF4	*
*k[]	*k[]	*
=1	=1	=1
*^	*	*
(8CL	[2.AA	(8EL	.
8BB	.	8A	.
8C	.	8E	.
8BBJ	.	8AJ	.
8CL	.	8EL	.
8BBJ	.	8AJ	.
=	=	=	=
8CL	2.AA]	8EL	.
8BB	.	8A	.
8C	.	8E	.
8BBJ	.	8AJ	.
8CL	.	8EL	.
8BBJ)	.	8AJ)	.
=	=	=	=
*	*	*^	*
(8AAL	[2.AAA	[2.C [2.A	(8EL	<
8GG#X	.	.	8F	.
8AA	.	.	8E	.
8GG#J	.	.	8FJ	.
8AAL	.	.	8EL	.
8GG#J	.	.	8FJ	.
=	=	=	=	=
8AAL	2.AAA]	2.C] 2.A]	8EL	[
8GG#X	.	.	8F	.
8AA	.	.	8E	.
8GG#J	.	.	8FJ	.
8AAL	.	.	8EL	.
8GG#J)	.	.	8FJ)	.
=	=	=	=	=
(8AAL	[2.AAA	[2.C [2.A	(8EL	>
8GG#X	.	.	8F	.
8AA	.	.	8E	.
8GG#J	.	.	8FJ	.
8AAL	.	.	8EL	.
8GG#J	.	.	8FJ	.
=	=	=	=	=
8AAL	2.AAA]	2.C] 2.A_	8EL	] >
8GG#X	.	.	8F	.
8AA	.	.	8E	.
8GG#J	.	.	8FJ	.
8AAL	.	.	8EL	.
8GG#J)	.	.	8FJ)	.
*v	*v	*	*	*
=	=	=	=
2.AAA 2.AA	2.A]	2.C 2.E	] pp
*	*v	*v	*
==	==	==
*-	*-	*-
!!!system-decoration: {(s1,s2)}
